X:20
T:El Bisson
C:Anonyme, vers 1550
R:Pavane
M:C
L:1/4
Q:C2=80
K:C
C3 D | EF EF | E4- | E2 A2 | G2 E2 | F2 G2 | E4- | E4 |
E3 G | GA AA | G4 | E3 F | E3 E | D2 D2 | ^C4- | ^C4 |
|: D3 E | F>G A2- | AF DE | FE/D/ CE | D3 D | E2 D2 | ^C4- | ^C4 :|
|: D>E F>G | A2 GF | E3 E | E G>F E | E F2 E/D/ | ^C D2 C | D4- | D4 :|
